X: 5
T:Ye Jacobites by name
M:4/4
L:1/8
Q:1/4=180
C:Trad. (words by Robert Burns)
O:Scottish
S:From the singing of Euan J, Leeds
K:Em
E|"Em"E3FE2D2|"Em"B,4B,2B,2|"G"G4F2E2|"D"F4-F3E|
 "Em"E3FE2D2|"D"B,2-A,2B,2D2|"Em"E6"D"z2|"Em"z4z3G|
 "G"G3GG2B2|d4-d3B|"D"A2A2A2B2|A6BB|
 "Em"B2E2E2D2|"D"B,2-A,2B,2D2|"Em"E4B2B2|"D"A4-A3B|
 "Em"B2E2E2D2|"D"B,2-A,2B,2D2|"Em"E6"D"z2|"Em"z4z3|]
